src/pages/elements/images/keep-it-simple-right-4-mobile.svg

<svg xmlns="http://www.w3.org/2000/svg" viewBox="0 0 288 288"><g fill="none" fill-rule="evenodd"><path fill="#FFF" d="M0 0h288v288H0z"/><path d="M54.8 103.056H42.368V138h-4.704v-34.944H25.232v-4.144H54.8v4.144zm8.232-.728c-1.904 0-2.744-1.008-2.744-2.52v-.728c0-1.512.84-2.52 2.744-2.52 1.904 0 2.744 1.008 2.744 2.52v.728c0 1.512-.84 2.52-2.744 2.52zM60.792 138v-28.896h4.48V138h-4.48zm25.984 0h-5.6c-3.08 0-4.76-1.96-4.76-4.76v-20.216h-4.76v-3.92h2.688c1.904 0 2.52-.672 2.52-2.632v-5.376h4.032v8.008h6.328v3.92h-6.328v21.056h5.88V138zm16.408 0h-3.976c-3.08 0-4.76-1.96-4.76-4.648V96.56h4.48v37.52h4.256V138zm17.36.672c-7.84 0-12.992-5.936-12.992-15.12s5.152-15.12 12.992-15.12c7.728 0 12.488 5.936 12.488 14.112v2.128h-20.776v1.344c0 4.984 3.192 8.736 8.568 8.736 3.64 0 6.44-1.792 7.952-4.984l3.192 2.296c-1.848 3.92-5.992 6.608-11.424 6.608zm0-26.488c-4.872 0-8.288 3.696-8.288 8.736v.392h15.96v-.616c0-5.096-3.08-8.512-7.672-8.512zM154.088 138V98.912h16.072c6.44 0 10.416 3.976 10.416 10.08 0 5.824-3.752 7.896-6.328 8.288v.336c2.8.168 7.672 2.576 7.672 9.072 0 6.44-4.312 11.312-10.08 11.312h-17.752zm4.704-18.144v14h11.592c4.032 0 6.496-2.128 6.496-6.048v-1.904c0-3.92-2.464-6.048-6.496-6.048h-11.592zm0-16.8v12.768H169.6c3.696 0 5.936-1.96 5.936-5.432v-1.904c0-3.472-2.24-5.432-5.936-5.432h-10.808zm33.656-.728c-1.904 0-2.744-1.008-2.744-2.52v-.728c0-1.512.84-2.52 2.744-2.52 1.904 0 2.744 1.008 2.744 2.52v.728c0 1.512-.84 2.52-2.744 2.52zM190.208 138v-28.896h4.48V138h-4.48zm38.36 3.192c0 5.936-4.704 8.68-14 8.68-9.016 0-12.712-2.576-12.712-7.112 0-3.136 1.736-4.816 4.592-5.6v-.616c-1.624-.784-2.576-2.072-2.576-4.032 0-2.912 2.072-4.312 4.984-5.04v-.224c-3.416-1.624-5.432-4.816-5.432-8.848 0-5.88 4.312-9.968 10.864-9.968 2.072 0 3.92.392 5.488 1.12v-.504c0-2.24.952-3.864 3.36-3.864h4.312v3.92h-5.488v1.848c2.072 1.792 3.304 4.368 3.304 7.448 0 5.88-4.312 9.968-10.92 9.968-.952 0-1.96-.112-2.8-.28-1.904.504-3.808 1.456-3.808 3.248 0 1.736 1.792 2.184 4.424 2.184h6.16c7.168 0 10.248 2.912 10.248 7.672zm-4.2.336c0-2.296-1.512-3.808-5.992-3.808h-9.632c-1.848.84-2.688 2.128-2.688 3.92 0 2.52 1.736 4.592 6.272 4.592h4.144c4.984 0 7.896-1.568 7.896-4.704zm-10.024-16.744c3.808 0 6.216-1.792 6.216-5.6v-1.568c0-3.808-2.408-5.6-6.216-5.6-3.808 0-6.216 1.792-6.216 5.6v1.568c0 3.808 2.408 5.6 6.216 5.6zm-179.94 61.648c-4.032 0-6.876-1.656-8.892-4.392l2.232-1.872c1.764 2.34 3.852 3.6 6.768 3.6 3.6 0 5.544-1.872 5.544-4.752 0-2.376-1.332-3.564-4.644-4.32l-2.052-.468c-4.572-1.044-7.092-3.06-7.092-6.912 0-4.464 3.384-6.876 8.316-6.876 3.78 0 6.444 1.44 8.316 4.104l-2.268 1.656c-1.368-1.908-3.276-3.096-6.192-3.096-3.204 0-5.184 1.404-5.184 4.104 0 2.376 1.548 3.456 4.716 4.176l2.052.468c4.896 1.116 7.02 3.276 7.02 7.02 0 4.608-3.24 7.56-8.64 7.56zm25.02-.432v-3.024h-.144c-.72 1.764-2.124 3.456-5.22 3.456-3.816 0-6.264-2.592-6.264-7.092v-11.916h2.88v11.412c0 3.312 1.476 5.004 4.248 5.004 2.268 0 4.5-1.116 4.5-3.564v-12.852h2.88V186h-2.88zm9 0v-26.64h2.88v11.088h.144c.972-2.34 2.88-3.456 5.436-3.456 4.644 0 7.56 3.78 7.56 9.72 0 5.94-2.916 9.72-7.56 9.72-2.556 0-4.32-1.152-5.436-3.456h-.144V186h-2.88zm7.668-2.16c3.24 0 5.256-2.232 5.256-5.544v-3.168c0-3.312-2.016-5.544-5.256-5.544-2.628 0-4.788 1.512-4.788 3.564v6.912c0 2.412 2.16 3.78 4.788 3.78zM97.008 186h-3.6c-1.98 0-3.06-1.26-3.06-3.06v-12.996h-3.06v-2.52h1.728c1.224 0 1.62-.432 1.62-1.692v-3.456h2.592v5.148h4.068v2.52h-4.068v13.536h3.78V186zm6.372-22.932c-1.224 0-1.764-.648-1.764-1.62v-.468c0-.972.54-1.62 1.764-1.62s1.764.648 1.764 1.62v.468c0 .972-.54 1.62-1.764 1.62zM101.94 186v-18.576h2.88V186h-2.88zm16.704 0h-3.6c-1.98 0-3.06-1.26-3.06-3.06v-12.996h-3.06v-2.52h1.728c1.224 0 1.62-.432 1.62-1.692v-3.456h2.592v5.148h4.068v2.52h-4.068v13.536h3.78V186zm10.548 0h-2.556c-1.98 0-3.06-1.26-3.06-2.988V159.36h2.88v24.12h2.736V186zm11.16.432c-5.04 0-8.352-3.816-8.352-9.72 0-5.904 3.312-9.72 8.352-9.72 4.968 0 8.028 3.816 8.028 9.072v1.368h-13.356v.864c0 3.204 2.052 5.616 5.508 5.616 2.34 0 4.14-1.152 5.112-3.204l2.052 1.476c-1.188 2.52-3.852 4.248-7.344 4.248zm0-17.028c-3.132 0-5.328 2.376-5.328 5.616v.252h10.26v-.396c0-3.276-1.98-5.472-4.932-5.472z" fill="#3D3D3D"/></g></svg>

<?xml version="1.0" encoding="UTF-8"?>
<svg width="288px" height="288px" viewBox="0 0 288 288" version="1.1" xmlns="http://www.w3.org/2000/svg" xmlns:xlink="http://www.w3.org/1999/xlink">
    <!-- Generator: Sketch 51.2 (57519) - http://www.bohemiancoding.com/sketch -->
    <title>Keep it Simple - Right 4</title>
    <desc>Created with Sketch.</desc>
    <defs></defs>
    <g id="Page-1" stroke="none" stroke-width="1" fill="none" fill-rule="evenodd">
        <g id="Type-Basics-Copy" transform="translate(-352.000000, -12429.000000)">
            <g id="Keep-it-Simple---Right-4" transform="translate(352.000000, 12429.000000)">
                <rect id="Rectangle-16-Copy-154" fill="#FFFFFF" x="0" y="0" width="288" height="288"></rect>
                <path d="M54.8,103.056 L42.368,103.056 L42.368,138 L37.664,138 L37.664,103.056 L25.232,103.056 L25.232,98.912 L54.8,98.912 L54.8,103.056 Z M63.032,102.328 C61.128,102.328 60.288,101.32 60.288,99.808 L60.288,99.08 C60.288,97.568 61.128,96.56 63.032,96.56 C64.936,96.56 65.776,97.568 65.776,99.08 L65.776,99.808 C65.776,101.32 64.936,102.328 63.032,102.328 Z M60.792,138 L60.792,109.104 L65.272,109.104 L65.272,138 L60.792,138 Z M86.776,138 L81.176,138 C78.096,138 76.416,136.04 76.416,133.24 L76.416,113.024 L71.656,113.024 L71.656,109.104 L74.344,109.104 C76.248,109.104 76.864,108.432 76.864,106.472 L76.864,101.096 L80.896,101.096 L80.896,109.104 L87.224,109.104 L87.224,113.024 L80.896,113.024 L80.896,134.08 L86.776,134.08 L86.776,138 Z M103.184,138 L99.208,138 C96.128,138 94.448,136.04 94.448,133.352 L94.448,96.56 L98.928,96.56 L98.928,134.08 L103.184,134.08 L103.184,138 Z M120.544,138.672 C112.704,138.672 107.552,132.736 107.552,123.552 C107.552,114.368 112.704,108.432 120.544,108.432 C128.272,108.432 133.032,114.368 133.032,122.544 L133.032,124.672 L112.256,124.672 L112.256,126.016 C112.256,131 115.448,134.752 120.824,134.752 C124.464,134.752 127.264,132.96 128.776,129.768 L131.968,132.064 C130.12,135.984 125.976,138.672 120.544,138.672 Z M120.544,112.184 C115.672,112.184 112.256,115.88 112.256,120.92 L112.256,121.312 L128.216,121.312 L128.216,120.696 C128.216,115.6 125.136,112.184 120.544,112.184 Z M154.088,138 L154.088,98.912 L170.16,98.912 C176.6,98.912 180.576,102.888 180.576,108.992 C180.576,114.816 176.824,116.888 174.248,117.28 L174.248,117.616 C177.048,117.784 181.92,120.192 181.92,126.688 C181.92,133.128 177.608,138 171.84,138 L154.088,138 Z M158.792,119.856 L158.792,133.856 L170.384,133.856 C174.416,133.856 176.88,131.728 176.88,127.808 L176.88,125.904 C176.88,121.984 174.416,119.856 170.384,119.856 L158.792,119.856 Z M158.792,103.056 L158.792,115.824 L169.6,115.824 C173.296,115.824 175.536,113.864 175.536,110.392 L175.536,108.488 C175.536,105.016 173.296,103.056 169.6,103.056 L158.792,103.056 Z M192.448,102.328 C190.544,102.328 189.704,101.32 189.704,99.808 L189.704,99.08 C189.704,97.568 190.544,96.56 192.448,96.56 C194.352,96.56 195.192,97.568 195.192,99.08 L195.192,99.808 C195.192,101.32 194.352,102.328 192.448,102.328 Z M190.208,138 L190.208,109.104 L194.688,109.104 L194.688,138 L190.208,138 Z M228.568,141.192 C228.568,147.128 223.864,149.872 214.568,149.872 C205.552,149.872 201.856,147.296 201.856,142.76 C201.856,139.624 203.592,137.944 206.448,137.16 L206.448,136.544 C204.824,135.76 203.872,134.472 203.872,132.512 C203.872,129.6 205.944,128.2 208.856,127.472 L208.856,127.248 C205.44,125.624 203.424,122.432 203.424,118.4 C203.424,112.52 207.736,108.432 214.288,108.432 C216.36,108.432 218.208,108.824 219.776,109.552 L219.776,109.048 C219.776,106.808 220.728,105.184 223.136,105.184 L227.448,105.184 L227.448,109.104 L221.96,109.104 L221.96,110.952 C224.032,112.744 225.264,115.32 225.264,118.4 C225.264,124.28 220.952,128.368 214.344,128.368 C213.392,128.368 212.384,128.256 211.544,128.088 C209.64,128.592 207.736,129.544 207.736,131.336 C207.736,133.072 209.528,133.52 212.16,133.52 L218.32,133.52 C225.488,133.52 228.568,136.432 228.568,141.192 Z M224.368,141.528 C224.368,139.232 222.856,137.72 218.376,137.72 L208.744,137.72 C206.896,138.56 206.056,139.848 206.056,141.64 C206.056,144.16 207.792,146.232 212.328,146.232 L216.472,146.232 C221.456,146.232 224.368,144.664 224.368,141.528 Z M214.344,124.784 C218.152,124.784 220.56,122.992 220.56,119.184 L220.56,117.616 C220.56,113.808 218.152,112.016 214.344,112.016 C210.536,112.016 208.128,113.808 208.128,117.616 L208.128,119.184 C208.128,122.992 210.536,124.784 214.344,124.784 Z M34.404,186.432 C30.372,186.432 27.528,184.776 25.512,182.04 L27.744,180.168 C29.508,182.508 31.596,183.768 34.512,183.768 C38.112,183.768 40.056,181.896 40.056,179.016 C40.056,176.64 38.724,175.452 35.412,174.696 L33.36,174.228 C28.788,173.184 26.268,171.168 26.268,167.316 C26.268,162.852 29.652,160.44 34.584,160.44 C38.364,160.44 41.028,161.88 42.9,164.544 L40.632,166.2 C39.264,164.292 37.356,163.104 34.44,163.104 C31.236,163.104 29.256,164.508 29.256,167.208 C29.256,169.584 30.804,170.664 33.972,171.384 L36.024,171.852 C40.92,172.968 43.044,175.128 43.044,178.872 C43.044,183.48 39.804,186.432 34.404,186.432 Z M59.424,186 L59.424,182.976 L59.28,182.976 C58.56,184.74 57.156,186.432 54.06,186.432 C50.244,186.432 47.796,183.84 47.796,179.34 L47.796,167.424 L50.676,167.424 L50.676,178.836 C50.676,182.148 52.152,183.84 54.924,183.84 C57.192,183.84 59.424,182.724 59.424,180.276 L59.424,167.424 L62.304,167.424 L62.304,186 L59.424,186 Z M68.424,186 L68.424,159.36 L71.304,159.36 L71.304,170.448 L71.448,170.448 C72.42,168.108 74.328,166.992 76.884,166.992 C81.528,166.992 84.444,170.772 84.444,176.712 C84.444,182.652 81.528,186.432 76.884,186.432 C74.328,186.432 72.564,185.28 71.448,182.976 L71.304,182.976 L71.304,186 L68.424,186 Z M76.092,183.84 C79.332,183.84 81.348,181.608 81.348,178.296 L81.348,175.128 C81.348,171.816 79.332,169.584 76.092,169.584 C73.464,169.584 71.304,171.096 71.304,173.148 L71.304,180.06 C71.304,182.472 73.464,183.84 76.092,183.84 Z M97.008,186 L93.408,186 C91.428,186 90.348,184.74 90.348,182.94 L90.348,169.944 L87.288,169.944 L87.288,167.424 L89.016,167.424 C90.24,167.424 90.636,166.992 90.636,165.732 L90.636,162.276 L93.228,162.276 L93.228,167.424 L97.296,167.424 L97.296,169.944 L93.228,169.944 L93.228,183.48 L97.008,183.48 L97.008,186 Z M103.38,163.068 C102.156,163.068 101.616,162.42 101.616,161.448 L101.616,160.98 C101.616,160.008 102.156,159.36 103.38,159.36 C104.604,159.36 105.144,160.008 105.144,160.98 L105.144,161.448 C105.144,162.42 104.604,163.068 103.38,163.068 Z M101.94,186 L101.94,167.424 L104.82,167.424 L104.82,186 L101.94,186 Z M118.644,186 L115.044,186 C113.064,186 111.984,184.74 111.984,182.94 L111.984,169.944 L108.924,169.944 L108.924,167.424 L110.652,167.424 C111.876,167.424 112.272,166.992 112.272,165.732 L112.272,162.276 L114.864,162.276 L114.864,167.424 L118.932,167.424 L118.932,169.944 L114.864,169.944 L114.864,183.48 L118.644,183.48 L118.644,186 Z M129.192,186 L126.636,186 C124.656,186 123.576,184.74 123.576,183.012 L123.576,159.36 L126.456,159.36 L126.456,183.48 L129.192,183.48 L129.192,186 Z M140.352,186.432 C135.312,186.432 132,182.616 132,176.712 C132,170.808 135.312,166.992 140.352,166.992 C145.32,166.992 148.38,170.808 148.38,176.064 L148.38,177.432 L135.024,177.432 L135.024,178.296 C135.024,181.5 137.076,183.912 140.532,183.912 C142.872,183.912 144.672,182.76 145.644,180.708 L147.696,182.184 C146.508,184.704 143.844,186.432 140.352,186.432 Z M140.352,169.404 C137.22,169.404 135.024,171.78 135.024,175.02 L135.024,175.272 L145.284,175.272 L145.284,174.876 C145.284,171.6 143.304,169.404 140.352,169.404 Z" id="Title-Big-Subtitle" fill="#3D3D3D"></path>
            </g>
        </g>
    </g>
</svg>
